X:1
T:Douala, 87.87 D
T:Douala, 87.87 D
T:William James Kirkpatrick, 1888
T:Public Domain Courtesy of the Cyber Hymnal™
C:William James Kirkpatrick, 1888
Z:Public Domain
Z:Courtesy of the Cyber Hymnal™
%%score ( 1 2 ) ( 3 4 )
L:1/8
Q:1/4=107
M:4/4
K:Eb
V:1 treble 
V:2 treble 
V:3 bass 
V:4 bass 
V:1
 (EF) | [EG]2 [EG]2 [EG]2 ([B,E][EG]) | [GB]2 [GB]2 [GB]2 [GB]2 | [Ac]2 [Ac]2 [GB]2 [EG]2 | %4
 [EG]4 !fermata![DF]2 (GF) | E2 [B,E]2 [B,E]2 ([EG][FA]) | [GB]2 [GB]2 [GB]2 (ed) | %7
 [Ac]2 [Ac]2 [GB]2 [EG]2 | [DF]4 !fermata![B,E]2 (EG) | [GB]2 [GB]2 [GB]2 [GB]2 | %10
 [Ac]2 [Ac]2 [GB]2 [GB]2 | [Ge]2 [Ae]2 [Be]2 [Ge]2 | [Ge]4 !fermata![Fd]2 [AB]2 | %13
 [Ge]2 [Ge]2 [Ge]2 [GB]2 | [Ac]2 [Ac]2 !fermata![GB]2 (EF) | [EG]2 [GB]2 [GB]2 [EG]2 | %16
 [DF]4 !fermata![B,E]2 |] %17
V:2
 E2 | x8 | x8 | x8 | x6 D2 | E2 x6 | x6 B2 | x8 | x6 E2 | x8 | x8 | x8 | x8 | x8 | x6 E2 | x8 | %16
 x6 |] %17
V:3
 (G,A,) | [E,B,]2 [E,B,]2 [E,B,]2 (G,B,) | [E,E]2 [E,E]2 [E,E]2 [E,E]2 | %3
 [A,E]2 [A,E]2 [E,E]2 [E,B,]2 | [B,,B,]4 !fermata![B,,B,]2 (B,A,) | %5
 [E,G,]2 [E,G,]2 [E,G,]2 [E,B,]2 | [E,E]2 [E,E]2 [E,E]2 [G,E]2 | [A,E]2 [A,E]2 [E,E]2 [E,B,]2 | %8
 [B,,A,]4 !fermata![E,G,]2 (G,B,) | [E,E]2 [E,B,]2 [G,E]2 [E,E]2 | [A,E]2 [A,E]2 [E,E]2 [E,B,]2 | %11
 [E,B,]2 [F,B,]2 [G,B,]2 [E,B,]2 | B,4 !fermata!B,2 [B,D]2 | [E,B,]2 [E,B,]2 [E,B,]2 [E,E]2 | %14
 [A,E]2 [A,E]2 !fermata![E,E]2 (G,A,) | [E,B,]2 [E,E]2 [E,E]2 [E,B,]2 | %16
 [B,,A,]4 !fermata![E,G,]2 |] %17
V:4
 E,2 | x6 E,2 | x8 | x8 | x6 B,,2 | x8 | x8 | x8 | x6 E,2 | x8 | x8 | x8 | B,4 B,2 x2 | x8 | %14
 x6 E,2 | x8 | x6 |] %17

